!!!OTL: HEIL DEM MANNE
!!!ARE: Europa, Mitteleuropa, Deutschland
!!!SCT: B0598
!!!YEM: Copyright 1995, estate of Helmut Schaffrath.
**kern
*ICvox
*Ivox
*M3/4
*k[]
*C:
=1
{8.G
16F
8E
8G
8c
8E
=2
8.G
16A
4G
8r}
{8G
=3
8F
8E
8D
8A
8G
8F
=4
8E
8D
8E
8F
8G
8E}
=5
{8.G
16F
8E
8G
8c
8B
=6
8.B
16A
4A
8r}
{8A
=7
8.G
16A
8G
8A
8B
8c
=8
8d
8B
4d
8c
8r}
=9
{8.G
16F
8E
8G
8c
8E
=10
8.G
16A
4G
8r}
{8G
=11
8F
8E
8D
8A
8G
8F
=12
8E
8D
8E
8F
8G
8E}
=13
{8.G
16F
8E
8G
8c
8B
=14
8.B
16A
4A
4r}
=15
{8.G
16A
8G
8A
8B
8c
=16
8d
8B
4d
8c
8r}
=17
{8.e
16e
8.e
16d
8c
8A
=18
8.d
16d
8.d
16c
8B
8G}
=19
{8G
8A
8B
8c
8d
8B
=20
8e
8d
8c
8B
8A
8G}
=21
{8.G
16F
8E
8G
8c
8E
=22
8.G
16A
4G
8r}
{8G
=23
8F
8E
8D
8A
8G
8F
=24
8E
8D
8E
8F
8G
8E}
=25
{8.G
16F
8E
8G
8c
8B
=26
8.B
16A
4A
8r}
{8A
=27
8.G
16A
8G
8A
8B
8c
=28
8d
8B
4d
8c
8r}
==
!!!AGN: Staende -, Jaeger - Lied
!!!ONB: ESAC (Essen Associative Code) Database: BOEHME
!!!AMT: simple triple
!!!AIN: vox
!!!EED: Helmut Schaffrath
!!!EEV: 1.0
*-
